X:624
T:Morning Dream., The
R:air
T:aisling na maidne.
Z:Tempo: Moderate.
M:3/4
L:1/8
Q:85
K:G
ded|d2 Bgfe|d2 G2 GA|B2 eBAG|A2z ded|
d2 Bgfe|d2 G2 GA|B2 cB BAG|G2 z||
gfe|d2 B.G.A.B|cd e2 ge|d2 edBG|A2 z gfe|
dB GcBA|BG E2 GA|Bd dcB BAG|G2 z||
